packages/foundations/assets/icons/functional/images/maps/location_arrow_north_filled.svg

<svg xmlns="http://www.w3.org/2000/svg" width="32" height="32" fill="none"><path fill="#1A1C1F" fill-rule="evenodd" d="M15.573 2.68c-.132.07-.312.23-.4.355l-.16.228v1.582c0 1.501.006 1.593.112 1.795.061.117.213.285.338.373.189.134.278.16.537.16s.348-.026.537-.16c.125-.088.277-.256.338-.373.106-.202.112-.294.112-1.795V3.263l-.16-.227c-.302-.426-.837-.579-1.254-.356m.198 5.963c-.272.046-.498.272-.686.685-.45.993-6.849 18.027-7.04 18.743-.16.597.362 1.283 1.029 1.352.548.056.508.09 3.657-3.034 1.578-1.565 2.959-2.914 3.069-2.997l.2-.151.2.151c.11.083 1.491 1.432 3.068 2.996 2.953 2.929 3.09 3.048 3.499 3.051.727.005 1.362-.718 1.192-1.356-.118-.439-2.853-7.781-5.426-14.563-1.444-3.806-1.716-4.501-1.801-4.604-.164-.198-.626-.33-.961-.273"/></svg>

<svg width="32" height="32" viewBox="0 0 32 32" fill="none" xmlns="http://www.w3.org/2000/svg"><path d="M15.573 2.680 C 15.441 2.750,15.261 2.910,15.173 3.035 L 15.013 3.263 15.013 4.845 C 15.013 6.346,15.019 6.438,15.125 6.640 C 15.186 6.757,15.338 6.925,15.463 7.013 C 15.652 7.147,15.741 7.173,16.000 7.173 C 16.259 7.173,16.348 7.147,16.537 7.013 C 16.662 6.925,16.814 6.757,16.875 6.640 C 16.981 6.438,16.987 6.346,16.987 4.845 L 16.987 3.263 16.827 3.036 C 16.525 2.610,15.990 2.457,15.573 2.680 M15.771 8.643 C 15.499 8.689,15.273 8.915,15.085 9.328 C 14.635 10.321,8.236 27.355,8.045 28.071 C 7.885 28.668,8.407 29.354,9.074 29.423 C 9.622 29.479,9.582 29.513,12.731 26.389 C 14.309 24.824,15.690 23.475,15.800 23.392 L 16.000 23.241 16.200 23.392 C 16.310 23.475,17.691 24.824,19.268 26.388 C 22.221 29.317,22.358 29.436,22.767 29.439 C 23.494 29.444,24.129 28.721,23.959 28.083 C 23.841 27.644,21.106 20.302,18.533 13.520 C 17.089 9.714,16.817 9.019,16.732 8.916 C 16.568 8.718,16.106 8.586,15.771 8.643 " fill="#1A1C1F" stroke="none" fill-rule="evenodd"></path></svg>
